flaticon/transport/trolleybus-1.svg

<svg xmlns="http://www.w3.org/2000/svg" width="32" height="32" viewBox="0 0 24 24">
    <path d="M6.398438 14.800781C5.71875 14.800781 5.199219 15.320312 5.199219 16 5.199219 16.679688 5.71875 17.199219 6.398438 17.199219 7.078125 17.199219 7.601562 16.679688 7.601562 16 7.601562 15.320312 7.078125 14.800781 6.398438 14.800781zM6.398438 16.398438C6.160156 16.398438 6 16.238281 6 16 6 15.761719 6.160156 15.601562 6.398438 15.601562 6.640625 15.601562 6.800781 15.761719 6.800781 16 6.800781 16.238281 6.640625 16.398438 6.398438 16.398438zM17.601562 14.800781C16.921875 14.800781 16.398438 15.320312 16.398438 16 16.398438 16.679688 16.921875 17.199219 17.601562 17.199219 18.28125 17.199219 18.800781 16.679688 18.800781 16 18.800781 15.320312 18.28125 14.800781 17.601562 14.800781zM17.601562 16.398438C17.359375 16.398438 17.199219 16.238281 17.199219 16 17.199219 15.761719 17.359375 15.601562 17.601562 15.601562 17.839844 15.601562 18 15.761719 18 16 18 16.238281 17.839844 16.398438 17.601562 16.398438zM16.398438 13.199219C17.078125 13.199219 17.601562 12.679688 17.601562 12L17.601562 7.199219C17.601562 6.519531 17.078125 6 16.398438 6L7.601562 6C6.921875 6 6.398438 6.519531 6.398438 7.199219L6.398438 12C6.398438 12.679688 6.921875 13.199219 7.601562 13.199219zM7.199219 12L7.199219 7.199219C7.199219 6.960938 7.359375 6.800781 7.601562 6.800781L16.398438 6.800781C16.640625 6.800781 16.800781 6.960938 16.800781 7.199219L16.800781 12C16.800781 12.238281 16.640625 12.398438 16.398438 12.398438L13.761719 12.398438 15.078125 11.078125C15.238281 10.921875 15.238281 10.679688 15.078125 10.519531 14.921875 10.359375 14.679688 10.359375 14.519531 10.519531L12.640625 12.398438 10.160156 12.398438 11.480469 11.078125C11.640625 10.921875 11.640625 10.679688 11.480469 10.519531 11.320312 10.359375 11.078125 10.359375 10.917969 10.519531L9.039062 12.398438 7.601562 12.398438C7.359375 12.398438 7.199219 12.238281 7.199219 12zM7.199219 12"/>
    <path d="M 22.078125 6.839844 L 21.160156 6.839844 C 20.761719 6.839844 20.441406 7.160156 20.441406 7.558594 L 20.441406 8.398438 L 19.601562 8.398438 L 19.601562 5.519531 C 19.601562 4.679688 18.921875 4 18.078125 4 L 16.667969 4 L 15.960938 1.878906 C 15.921875 1.71875 15.761719 1.601562 15.601562 1.601562 L 13.761719 1.601562 L 14.679688 0.679688 C 14.839844 0.519531 14.839844 0.28125 14.679688 0.121094 C 14.519531 -0.0390625 14.28125 -0.0390625 14.121094 0.121094 L 12.640625 1.601562 L 10.960938 1.601562 L 11.878906 0.679688 C 12.039062 0.519531 12.039062 0.28125 11.878906 0.121094 C 11.71875 -0.0390625 11.480469 -0.0390625 11.320312 0.121094 L 9.839844 1.601562 L 8.398438 1.601562 C 8.238281 1.601562 8.078125 1.71875 8.039062 1.878906 L 7.332031 4 L 5.921875 4 C 5.078125 4 4.398438 4.679688 4.398438 5.519531 L 4.398438 8.398438 L 3.558594 8.398438 L 3.558594 7.558594 C 3.558594 7.160156 3.238281 6.839844 2.839844 6.839844 L 1.921875 6.839844 C 1.519531 6.839844 1.199219 7.160156 1.199219 7.558594 L 1.199219 10.078125 C 1.199219 10.480469 1.519531 10.800781 1.921875 10.800781 L 2.878906 10.800781 C 3.28125 10.800781 3.601562 10.480469 3.558594 10.078125 L 3.558594 9.199219 L 4.398438 9.199219 L 4.398438 12.320312 C 4.398438 12.558594 4.359375 12.839844 4.199219 13.078125 L 3.441406 14.601562 C 3.28125 14.921875 3.199219 15.320312 3.199219 15.679688 L 3.199219 18.800781 C 3.199219 18.808594 3.199219 18.8125 3.199219 18.820312 C 3.199219 18.828125 3.199219 18.832031 3.199219 18.839844 L 3.199219 20.398438 C 3.199219 21.078125 3.71875 21.601562 4.398438 21.601562 L 4.398438 22.398438 C 4.398438 23.28125 5.121094 24 6 24 L 7.601562 24 C 8.480469 24 9.199219 23.28125 9.199219 22.398438 L 9.199219 21.601562 L 14.800781 21.601562 L 14.800781 22.398438 C 14.800781 23.28125 15.519531 24 16.398438 24 L 18 24 C 18.878906 24 19.601562 23.28125 19.601562 22.398438 L 19.601562 21.601562 C 20.28125 21.601562 20.800781 21.078125 20.800781 20.398438 L 20.800781 18.839844 C 20.800781 18.832031 20.800781 18.828125 20.800781 18.820312 C 20.800781 18.8125 20.800781 18.808594 20.800781 18.800781 L 20.800781 15.761719 C 20.800781 15.320312 20.679688 14.878906 20.441406 14.519531 L 19.839844 13.480469 C 19.679688 13.238281 19.601562 12.921875 19.601562 12.640625 L 19.601562 9.199219 L 20.441406 9.199219 L 20.441406 10.078125 C 20.441406 10.480469 20.761719 10.800781 21.160156 10.800781 L 22.078125 10.800781 C 22.480469 10.800781 22.800781 10.480469 22.800781 10.078125 L 22.800781 7.558594 C 22.800781 7.160156 22.480469 6.839844 22.078125 6.839844 Z M 2.800781 10 L 2 10 L 2 7.601562 L 2.800781 7.601562 Z M 8.679688 2.398438 L 15.320312 2.398438 L 15.839844 4 L 8.160156 4 Z M 8.398438 22.398438 C 8.398438 22.839844 8.039062 23.199219 7.601562 23.199219 L 6 23.199219 C 5.558594 23.199219 5.199219 22.839844 5.199219 22.398438 L 5.199219 21.601562 L 8.398438 21.601562 Z M 18.800781 22.398438 C 18.800781 22.839844 18.441406 23.199219 18 23.199219 L 16.398438 23.199219 C 15.960938 23.199219 15.601562 22.839844 15.601562 22.398438 L 15.601562 21.601562 L 18.800781 21.601562 Z M 20 20.398438 C 20 20.640625 19.839844 20.800781 19.601562 20.800781 L 4.398438 20.800781 C 4.160156 20.800781 4 20.640625 4 20.398438 L 4 19.238281 L 20 19.238281 Z M 19.761719 14.921875 C 19.921875 15.160156 20 15.480469 20 15.761719 L 20 18.398438 L 4 18.398438 L 4 15.679688 C 4 15.441406 4.039062 15.160156 4.199219 14.921875 L 4.960938 13.398438 C 5.121094 13.078125 5.199219 12.679688 5.199219 12.320312 L 5.199219 5.519531 C 5.199219 5.121094 5.519531 4.800781 5.921875 4.800781 L 18.078125 4.800781 C 18.480469 4.800781 18.800781 5.121094 18.800781 5.519531 L 18.800781 12.640625 C 18.800781 13.078125 18.921875 13.519531 19.160156 13.878906 Z M 22 10 L 21.199219 10 L 21.199219 7.601562 L 22 7.601562 Z M 22 10"/>
    <path d="M10.398438 14.800781C10.160156 14.800781 10 14.960938 10 15.199219 10 15.441406 10.160156 15.601562 10.398438 15.601562L13.601562 15.601562C13.839844 15.601562 14 15.441406 14 15.199219 14 14.960938 13.839844 14.800781 13.601562 14.800781zM14.800781 16.398438L9.199219 16.398438C8.960938 16.398438 8.800781 16.558594 8.800781 16.800781 8.800781 17.039062 8.960938 17.199219 9.199219 17.199219L14.800781 17.199219C15.039062 17.199219 15.199219 17.039062 15.199219 16.800781 15.199219 16.558594 15.039062 16.398438 14.800781 16.398438zM14.800781 16.398438"/>
</svg>

<svg xmlns="http://www.w3.org/2000/svg" width="32" height="32" viewBox="0 0 24 24">
    <path d="M6.398 14.8c-.68 0-1.199.52-1.199 1.2 0 .68.52 1.2 1.2 1.2.68 0 1.203-.52 1.203-1.2 0-.68-.524-1.2-1.204-1.2zm0 1.598C6.16 16.398 6 16.238 6 16c0-.238.16-.398.398-.398.243 0 .403.16.403.398 0 .238-.16.398-.403.398zm0 0M17.602 14.8c-.68 0-1.204.52-1.204 1.2 0 .68.524 1.2 1.204 1.2.68 0 1.199-.52 1.199-1.2 0-.68-.52-1.2-1.2-1.2zm0 1.598c-.243 0-.403-.16-.403-.398 0-.238.16-.398.403-.398.238 0 .398.16.398.398 0 .238-.16.398-.398.398zm0 0M16.398 13.2c.68 0 1.204-.52 1.204-1.2V7.2c0-.68-.524-1.2-1.204-1.2H7.602c-.68 0-1.204.52-1.204 1.2V12c0 .68.524 1.2 1.204 1.2zM7.2 12V7.2c0-.24.16-.4.403-.4h8.796c.243 0 .403.16.403.4V12c0 .238-.16.398-.403.398h-2.636l1.316-1.32a.385.385 0 0 0 0-.558.385.385 0 0 0-.558 0l-1.88 1.878h-2.48l1.32-1.32a.385.385 0 0 0 0-.558.39.39 0 0 0-.562 0l-1.879 1.878H7.602c-.243 0-.403-.16-.403-.398zm0 0"/>
    <path d="M22.078 6.84h-.918a.717.717 0 0 0-.719.719v.84h-.84v-2.88c0-.84-.68-1.519-1.523-1.519h-1.41l-.707-2.121a.38.38 0 0 0-.36-.277h-1.84L14.68.68a.385.385 0 0 0 0-.559.385.385 0 0 0-.559 0l-1.48 1.48h-1.68l.918-.921a.385.385 0 0 0 0-.559.385.385 0 0 0-.559 0l-1.48 1.48H8.398a.38.38 0 0 0-.359.278L7.332 4h-1.41a1.52 1.52 0 0 0-1.524 1.52v2.878h-.84v-.84a.717.717 0 0 0-.718-.718h-.918a.718.718 0 0 0-.723.719v2.52c0 .401.32.722.723.722h.957c.402 0 .723-.32.68-.723V9.2h.84v3.121c0 .239-.04.52-.2.758l-.758 1.524A2.5 2.5 0 0 0 3.2 15.68v4.718c0 .68.52 1.204 1.2 1.204v.796C4.398 23.281 5.12 24 6 24h1.602c.878 0 1.597-.719 1.597-1.602v-.796h5.602v.796c0 .883.719 1.602 1.597 1.602H18c.879 0 1.602-.719 1.602-1.602v-.796c.68 0 1.199-.524 1.199-1.204V18.84v-.02-3.058c0-.442-.121-.883-.36-1.242l-.601-1.04a1.573 1.573 0 0 1-.238-.84V9.2h.84v.878c0 .402.32.723.718.723h.918c.402 0 .723-.32.723-.723v-2.52a.718.718 0 0 0-.723-.718zM2.801 10H2V7.602h.8zM8.68 2.398h6.64L15.84 4H8.16zm-.282 20c0 .442-.359.801-.796.801H6c-.441 0-.8-.36-.8-.8v-.797h3.198zm10.403 0c0 .442-.36.801-.801.801h-1.602a.801.801 0 0 1-.796-.8v-.797H18.8zm1.199-2c0 .243-.16.403-.398.403H4.398c-.238 0-.398-.16-.398-.403v-1.16h16zm-.238-5.476c.16.238.238.558.238.84v2.636H4V15.68c0-.239.04-.52.2-.758l.76-1.524c.161-.32.24-.718.24-1.078v-6.8c0-.399.32-.72.722-.72h12.156c.402 0 .723.321.723.72v7.12c0 .438.12.88.36 1.239zM22 10h-.8V7.602h.8zm0 0"/>
    <path d="M10.398 14.8c-.238 0-.398.16-.398.4 0 .241.16.402.398.402h3.204c.238 0 .398-.16.398-.403 0-.238-.16-.398-.398-.398zm0 0M14.8 16.398H9.2c-.24 0-.4.16-.4.403 0 .238.16.398.4.398h5.6c.24 0 .4-.16.4-.398 0-.242-.16-.403-.4-.403zm0 0"/>
</svg>
